X: 471
T:Silver Spear, The
S:John B. Walsh
M:C|
I:speed 300
E:7
Z:Steven Palm
R:reel
F:http://colas.org/pub/tunes/abc.tunes/xir
N:Posted to the woodenflute mailing list January 2002
K:D
|:FA ~A2 BAFA|dfed Bcd2|FA ~A2 BAFA|dfed B2 A2|
FA ~A2 BAFA|dfed Bcdf|~g3 e~f3 e|dfed B2 A2:|
|:faaf bfaf|gfed Bcde|faaf bfaf|gfed B2 A2|
faaf bfaf|gfed Bcde|~g3 e~f3 e|dfed B2 A2:|
<end>
<start>
